src/Icon/svgs/ListBullet.svg

<svg width="24" height="24" viewBox="0 0 24 24" fill="none" xmlns="http://www.w3.org/2000/svg">
<path fill-rule="evenodd" clip-rule="evenodd" d="M3 10.5C2.17 10.5 1.5 11.17 1.5 12C1.5 12.83 2.17 13.5 3 13.5C3.83 13.5 4.5 12.83 4.5 12C4.5 11.17 3.83 10.5 3 10.5ZM3 4.5C2.17 4.5 1.5 5.17 1.5 6C1.5 6.83 2.17 7.5 3 7.5C3.83 7.5 4.5 6.83 4.5 6C4.5 5.17 3.83 4.5 3 4.5ZM3 16.5C2.17 16.5 1.5 17.18 1.5 18C1.5 18.82 2.18 19.5 3 19.5C3.82 19.5 4.5 18.82 4.5 18C4.5 17.18 3.83 16.5 3 16.5ZM6 19H22V17H6V19ZM6 13H22V11H6V13ZM6 5V7H22V5H6Z" fill="#1B1C1D"/>
</svg>

<svg xmlns="http://www.w3.org/2000/svg" width="24" height="24" fill="none"  xmlns:v="https://vecta.io/nano"><path fill-rule="evenodd" d="M3 10.5a1.5 1.5 0 1 0 0 3 1.5 1.5 0 1 0 0-3zm0-6a1.5 1.5 0 1 0 0 3 1.5 1.5 0 1 0 0-3zm0 12c-.83 0-1.5.68-1.5 1.5A1.51 1.51 0 0 0 3 19.5 1.51 1.51 0 0 0 4.5 18c0-.82-.67-1.5-1.5-1.5zM6 19h16v-2H6v2zm0-6h16v-2H6v2zm0-8v2h16V5H6z" fill="#1b1c1d"/></svg>
